svgs/sharp-regular/up-to-dotted-line.svg

<svg xmlns="http://www.w3.org/2000/svg" viewBox="0 0 448 512"><!--! Font Awesome Pro 6.5.2 by @fontawesome - https://fontawesome.com License - https://fontawesome.com/license (Commercial License) Copyright 2024 Fonticons, Inc. --><path d="M64 32V96H0V32H64zm96 0V96H96V32h64zm32 0h64V96H192V32zm160 0V96H288V32h64zm32 0h64V96H384V32zM256 352V304h48 28.1L224 195.9 115.9 304H144h48v48 80h64V352zm1.9-190.1L384 288v16 48H352 336 304v48 32 48H256 192 144V432 400 352H112 96 64V304 288L190.1 161.9 224 128l33.9 33.9z"/></svg>

<svg xmlns="http://www.w3.org/2000/svg" viewBox="0 0 448 512"><!--! Font Awesome Pro 6.6.0 by @fontawesome - https://fontawesome.com License - https://fontawesome.com/license (Commercial License) Copyright 2024 Fonticons, Inc. --><path d="M64 32l0 64L0 96 0 32l64 0zm96 0l0 64L96 96l0-64 64 0zm32 0l64 0 0 64-64 0 0-64zm160 0l0 64-64 0 0-64 64 0zm32 0l64 0 0 64-64 0 0-64zM256 352l0-48 48 0 28.1 0L224 195.9 115.9 304l28.1 0 48 0 0 48 0 80 64 0 0-80zm1.9-190.1L384 288l0 16 0 48-32 0-16 0-32 0 0 48 0 32 0 48-48 0-64 0-48 0 0-48 0-32 0-48-32 0-16 0-32 0 0-48 0-16L190.1 161.9 224 128l33.9 33.9z"/></svg>
